icons/fold-24.svg

<svg xmlns="http://www.w3.org/2000/svg" width="24" height="24" viewBox="0 0 24 24">
  <defs/>
  <path d="M12,15 C12.199,15 12.389,15.079 12.53,15.22 L15.78,18.47 C15.981,18.657 16.063,18.939 15.995,19.204 C15.928,19.47 15.72,19.678 15.454,19.745 C15.189,19.813 14.907,19.731 14.72,19.53 L12,16.81 L9.28,19.53 C8.984,19.805 8.524,19.797 8.238,19.512 C7.953,19.226 7.945,18.766 8.22,18.47 L11.47,15.22 C11.611,15.079 11.801,15 12,15 Z"/>
  <path d="M12.53,8.78 C12.237,9.072 11.763,9.072 11.47,8.78 L8.22,5.53 C7.945,5.234 7.953,4.774 8.238,4.488 C8.524,4.203 8.984,4.195 9.28,4.47 L12,7.19 L14.72,4.47 C14.907,4.269 15.189,4.187 15.454,4.255 C15.72,4.322 15.928,4.53 15.995,4.796 C16.063,5.061 15.981,5.343 15.78,5.53 Z M12,15.75 C12.414,15.75 12.75,16.086 12.75,16.5 L12.75,22.25 C12.75,22.664 12.414,23 12,23 C11.586,23 11.25,22.664 11.25,22.25 L11.25,16.5 C11.25,16.086 11.586,15.75 12,15.75 Z"/>
  <path d="M12,8.5 C11.586,8.5 11.25,8.164 11.25,7.75 L11.25,1.75 C11.25,1.336 11.586,1 12,1 C12.414,1 12.75,1.336 12.75,1.75 L12.75,7.75 C12.75,8.164 12.414,8.5 12,8.5 Z M2.75,12 C2.75,11.586 3.086,11.25 3.5,11.25 L4.5,11.25 C4.914,11.25 5.25,11.586 5.25,12 C5.25,12.414 4.914,12.75 4.5,12.75 L3.5,12.75 C3.086,12.75 2.75,12.414 2.75,12 Z M6.75,12 C6.75,11.586 7.086,11.25 7.5,11.25 L8.5,11.25 C8.914,11.25 9.25,11.586 9.25,12 C9.25,12.414 8.914,12.75 8.5,12.75 L7.5,12.75 C7.086,12.75 6.75,12.414 6.75,12 Z M10.75,12 C10.75,11.586 11.086,11.25 11.5,11.25 L12.5,11.25 C12.914,11.25 13.25,11.586 13.25,12 C13.25,12.414 12.914,12.75 12.5,12.75 L11.5,12.75 C11.086,12.75 10.75,12.414 10.75,12 Z M14.75,12 C14.75,11.586 15.086,11.25 15.5,11.25 L16.5,11.25 C16.914,11.25 17.25,11.586 17.25,12 C17.25,12.414 16.914,12.75 16.5,12.75 L15.5,12.75 C15.086,12.75 14.75,12.414 14.75,12 Z M18.75,12 C18.75,11.586 19.086,11.25 19.5,11.25 L20.5,11.25 C20.914,11.25 21.25,11.586 21.25,12 C21.25,12.414 20.914,12.75 20.5,12.75 L19.5,12.75 C19.086,12.75 18.75,12.414 18.75,12 Z"/>
</svg>

<svg xmlns="http://www.w3.org/2000/svg" width="24" height="24" viewBox="0 0 24 24"><path fill-rule="evenodd" d="M12 15a.75.75 0 01.53.22l3.25 3.25a.75.75 0 11-1.06 1.06L12 16.81l-2.72 2.72a.75.75 0 01-1.06-1.06l3.25-3.25A.75.75 0 0112 15z"/><path fill-rule="evenodd" d="M12 15.75a.75.75 0 01.75.75v5.75a.75.75 0 01-1.5 0V16.5a.75.75 0 01.75-.75zm.53-6.97a.75.75 0 01-1.06 0L8.22 5.53a.75.75 0 011.06-1.06L12 7.19l2.72-2.72a.75.75 0 111.06 1.06l-3.25 3.25z"/><path fill-rule="evenodd" d="M12 8.5a.75.75 0 01-.75-.75v-6a.75.75 0 011.5 0v6a.75.75 0 01-.75.75zM10.75 12a.75.75 0 01.75-.75h1a.75.75 0 010 1.5h-1a.75.75 0 01-.75-.75zm-8 0a.75.75 0 01.75-.75h1a.75.75 0 010 1.5h-1a.75.75 0 01-.75-.75zm12 0a.75.75 0 01.75-.75h1a.75.75 0 010 1.5h-1a.75.75 0 01-.75-.75zm-8 0a.75.75 0 01.75-.75h1a.75.75 0 010 1.5h-1a.75.75 0 01-.75-.75zm12 0a.75.75 0 01.75-.75h1a.75.75 0 010 1.5h-1a.75.75 0 01-.75-.75z"/></svg>
